X:1
T:Pleusist à Dieu
T:Jean de Castro
T:Source : La fleur des chansons à 3---Louvain---P.Phalèse---1574. Editor : André Vierendeels (14/08/18) Notes : Original clefs : C1, C3, C4 Original note values have been halved Editorial accidentals above the staff
T:Pleusist à Dieu
T:©
T:©
T:©
C:Jean de Castro
Z:©
%%score [ 1 [ 2 3 ] ]
L:1/8
Q:1/4=120
M:2/2
K:F
V:1 treble nm="Soprano" snm="S"
V:2 treble-8 nm="Tenor 1" snm="T 1"
V:3 treble-8 nm="Tenor 2" snm="T 2"
V:1
 z4 F4 | G2 G2 A4 | z2 F2 A2 c2 | B2 A4 G2- | GF F4 E2 | F2 z F D2 E2- | E2 F4 G2 | z AAA =Bc d2- | %8
w: Pleu-|sist à Dieu,|qui cre- a|tout le mon-||de, pleu- sist à|_ _ Dieu,|qui cre- a tout me mon-|
 dc c4 B2 | c8 | z4 z2 A2 | =B2 c2 F2 c2- | c2 B2 A2 A2 | B2 z A G2 A2 | D4 E2 E2 | G3 F/E/ D2 D2 | %16
w: |de,|que|ie fus- se'au- prez|_ de mes a-|mours, que ie fus-|se'au- prez de|mes _ _ _ a-|
 E4 z2 ^F2 | G2 G2 A4 | z2 F2 A2 c2 | B2 A4 G2- | GF F4 E2 | F2 z F E2 D2 | C2 C2 C4 | A,8 | %24
w: mours, fust|en cha- teau|ou en fos-|se pro- fon-||de, ou en fos-|se pro- fon-|de,|
 z4 c4 | B2 B2 A2 A2 | G4 z2 d2 | c2 c2 B3 B | A2 A2 G2 G2 | A2 z c c2 c2 | B2 AG A4 | %31
w: a-|vec el- le vou-|droy, a-|vec el- le vou-|droy u- ser mes|iours, au- tre ne|veux, _ _ _|
 z2 A2 G2 FE | D2 D2 E4 | z2 F2 A2 c2- | c2 A2 z2 c2 | d4 c4 | z2 A2 d4 | G4 c4 | z2 B4 d2 | %39
w: c'est mon _ _|_ de- sir,|en dan- ger|_ suis, suis|bel- le|me lai-|rez vous,|me lai-|
 G2 c2 z2 A2- | A2 d4 D2 | A8 |] %42
w: rez vous, me|_ lai- rez|vous?|
V:2
 c4 d2 d2 | e4 z2 c2 | d2 d2 f2 e2 | d2 cB c4 | d2 f2 g2 g2 | a2 z A B2 B2 | c2 c2 d2 e2 | %7
w: Pleu- sist à|Dieu, qui|cre- a tout le|mon- * * *|de, pleu- sist à|Dieu, pleu- sist à|Dieu, pleu- sist à|
 f2 F2 G2 B2 | A2 c2 G4 | F4 z2 c2 | d2 e2 ^fg3/2f/4e/4f | g2 z c d2 e2 | f2 g4 f2 | d2 f2 e2 z d | %14
w: Dieu, qui cre- a|tout le mon-|de, que|ie fus- se'au- * * * *|prez, que ie fus-|se'au- prez de|mes a- mours, de|
 =B c2 B c2 z c | d2 c4 =B2 | z2 c2 d2 d2 | e4 z2 c2 | d2 d2 f2 e2 | d2 cB c2 c2 | z2 F2 G4 | %21
w: mes _ a- mours, de|mes a- mours,|fust en cha-|teau ou|en fos- se pro-|fon- * * * de,|pro- fon-|
 A2 z A c2 B2 | A2 A2 G4 | F2 f2 e2 e2 | d2 d2 e2 f2 | g4 z2 f2 | e2 e2 defg | a2 a2 g4 | %28
w: de, ou en fos-|se pro- fon-|de, a- vec el-|le vou- droy u-|ser, a-|vec el- le _ _ _|_ vou- droy|
 e2 f4 e2 | f2 c2 f2 a2 | g2 fe f3 e/d/ | c4 z2 c2 | c2 B2 c2 z c | d4 f2 c2 | z c e2 gg f2- | %35
w: u- ser mes|iours,, au- tre ne|veux, _ _ _ _ _|_ c'est|mon de- sir, en|dan- ger suis,|en dan- ger suis bel-|
 f2 d2 z e a2- | a2 d4 g2- | gfed e4 | z2 e2 a3 d | ee a4 d2 | z2 A2 d2 d2 | c8 |] %42
w: * le, me lai-|* rez vous,|_ _ _ _ _|le lai- rez|vous, le lai- rez|me lai- rez|vous?|
V:3
 z8 | z8 | z8 | z2 F2 A2 c2 | B2 A2 G4 | F2 F2 G2 G2 | A4 z2 c2 | d2 f2 z2 z f- | f e2 c d3 d | %9
w: |||Qui cre- a|tout le mon-|de, pleu- sist à|Dieu, qui|cre- a, qui|_ cre- a tout le|
 f2 c2 z2 A2 | B2 c2 d4 | G2 z A B2 c2 | d8 | G2 z D E2 F2 | G4 C2 A2 | B2 c2 G4 | z8 | z8 | z8 | %19
w: mon- de, que|ie fus- se'au-|prez de mes _|a-|mours, de mes _|a- mours, de|mes a- mours,||||
 z2 F2 A2 c2 | C2 D2 C4 | F4 z4 | F4 C4 | F4 z2 c2 | B2 A2 A2 A2 | G2 G2 A2 F2 | c2 z c B2 B2 | %27
w: ou en fos-|se pro- fon-|de,|pro- fon-|de, a-|vec el- le vou-|droy u- ser mes|iours, a- vec el-|
 A2 F2 G2 G2 | A2 F2 C4 | z8 | z4 z2 F2 | F2 F2 E2 DC | G4 z4 | z4 z2 F2 | A2 c4 A2 | B4 A2 A2 | %36
w: le vou- droy u-|ser mes iours,||c'est|mon de- * * *|sir,|en|dan- ger suis|bel- le, me|
 d4 G4 | c3 B A2 E2 | A4 D4 | z2 A2 d4 | D8 | F8 |] %42
w: lai- rez|vous, _ _ le|lai- rez,|me lai-|rez|vous?|

